!!!SOCIAL_FUNCTION:	cheyenne war song
!!!PDT:	1936
!!!OTL: No_1_He_Gave_Me_a_Bracelet.krn
!!!REG: Oklahoma and Montana
!!!LANG: Tone
!!!LING_GROUP: Algonquin
**kern
*staff1
=1-
=
*clefG2
*k[b-e-a-d-]
*M2/4
16b-\LK
8.b-\J
8.b-\L
16b-\Jk
=2
*M3/8
8b-\L
16cc\L
16b-\J
8a-\J
=3
*M2/4
4f/
4f/
=4
*M3/8
8f/L
16a-/L
16f/J
8e-/J
=5
*M2/4
8.d-/L
16e-/Jk
12f/L
12e-/
12d-/J
=6
4B-/
8An/L
8A/J
=7
4B-/
8F/
8r
=8
*M3/4
8.d-/L
16d-/Jk
8.B-/L
16e-/Jk
12f/L
12e-/
12d-/J
=9
8B-/L
8d-/J
16d-/LK
8.B-/J
8.F/L
16G/Jk
=10
4F/
4F/
4r
==:|!
*-
